X: 23
T: Dartford Camp
%R: reel
B: "Twenty Four Country Dances for the Year 1782", Thomas Skillern, ed. p.12 #1
F: http://www.vwml.org/browse/browse-collections-dance-tune-books/browse-skillerns1782#
Z: 2014 John Chambers <jc:trillian.mit.edu>
M: 2/4
L: 1/16
K: Bb
|:\
BcBF DFDF | BcBF DFDF | BdcB cedc | dfed cBAG |
BcBF DFDF | BcBF DFDF | Bdfd cege | dcBA B4 :|
|:\
fgfd BdBd | fgfd BdBd | bagf gfed | edcB BAGF |
fgfd BdBd | fgfd BdBd | (ba).g.f (gf).e.d | ecBA B2B,2 :|
%%begintext align
%%   First Cu. turn right hands half round at top
%% Left hands back again the 1st Cu. set to the 2d
%% Lady then to the 2d Gent: Lead down the middle
%% up again and Cast off hands four at bottom
%%endtext

%%sep 1 1 500
%%sep 1 1 500
